client/src/assets/shapes/Edit.svg

<svg width="20" height="20" viewBox="0 0 20 20" fill="none" xmlns="http://www.w3.org/2000/svg">
	<g clip-path="url(#clip0_352_2677)">
	<path d="M13.6155 18H6.0358C4.3616 18 3 16.5496 3 14.7662V6.69216C3 4.90877 4.3616 3.45836 6.0358 3.45836H11.4592C11.8714 3.45836 12.2051 3.81374 12.2051 4.25291C12.2051 4.69207 11.8714 5.04745 11.4592 5.04745H6.0358C5.18412 5.04745 4.4918 5.78494 4.4918 6.69216V14.7662C4.4918 15.6734 5.18412 16.4109 6.0358 16.4109H13.6155C14.4672 16.4109 15.1595 15.6734 15.1595 14.7662V9.07436C15.1595 8.63519 15.4931 8.27981 15.9054 8.27981C16.3177 8.27981 16.6513 8.63519 16.6513 9.07436V14.7662C16.6513 16.5496 15.2897 18 13.6155 18Z" fill="white"/>
	<path d="M8.52087 9.64066C8.5168 9.64571 8.51274 9.65005 8.50935 9.6551C8.51545 9.64716 8.52223 9.63921 8.52901 9.63199L8.52087 9.64066ZM8.39746 9.83351C8.41102 9.8039 8.42594 9.77501 8.44289 9.74756C8.42594 9.77501 8.41034 9.8039 8.39746 9.83351Z" fill="white"/>
	<path d="M17.998 4.0355C17.9776 3.48004 17.7552 2.96647 17.3721 2.5887L17.3361 2.55331C16.953 2.17553 16.4546 1.97979 15.9332 2.00146C15.4117 2.02313 14.9289 2.26005 14.575 2.66815L8.52912 9.63199C8.52234 9.63922 8.51556 9.64716 8.50946 9.65511C8.502 9.66305 8.49522 9.67172 8.48844 9.68039C8.48234 9.68906 8.47556 9.69772 8.46945 9.70711C8.46064 9.72011 8.45182 9.73312 8.44301 9.74756C8.42605 9.77501 8.41114 9.8039 8.39757 9.83352C8.39147 9.8458 8.38673 9.85808 8.3813 9.87108C8.37859 9.87758 8.37588 9.88408 8.37384 9.8913C8.36909 9.90286 8.3657 9.91442 8.36164 9.92597L7.39672 12.9713C7.30246 13.2681 7.38112 13.5961 7.59675 13.8084C7.73712 13.9471 7.91884 14.0201 8.10328 14.0201C8.20229 14.0201 8.30196 13.9991 8.39622 13.9565L11.171 12.6939C11.171 12.6939 11.173 12.6939 11.1737 12.6924C11.1872 12.6859 11.2008 12.6794 11.2137 12.6722C11.27 12.6426 11.3215 12.605 11.3683 12.5617C11.3798 12.5509 11.3907 12.54 11.4015 12.5285C11.4103 12.5198 11.4185 12.5111 11.4259 12.5025L17.4799 5.52997C17.8339 5.12186 18.0183 4.59096 17.998 4.0355ZM16.3848 4.45083L10.8373 10.8404L10.1226 10.1362L15.6701 3.74729C15.7542 3.6505 15.8681 3.59416 15.9915 3.5891C16.1142 3.58405 16.2322 3.63028 16.3231 3.71984L16.359 3.75524C16.4499 3.8448 16.5021 3.96615 16.5068 4.09761C16.5116 4.22908 16.4682 4.35476 16.3848 4.45083Z" fill="white"/>
	</g>
	<defs>
	<clipPath id="clip0_352_2677">
	<rect width="15" height="16" fill="white" transform="translate(3 2)"/>
	</clipPath>
	</defs>
</svg>

<?xml version="1.0" encoding="utf-8"?>
<!-- Generator: Adobe Illustrator 26.5.0, SVG Export Plug-In . SVG Version: 6.00 Build 0)  -->
<svg version="1.1" id="Calque_1" xmlns="http://www.w3.org/2000/svg" xmlns:xlink="http://www.w3.org/1999/xlink" x="0px" y="0px"
	 viewBox="0 0 20 20" style="enable-background:new 0 0 20 20;" xml:space="preserve">
<style type="text/css">
	.st0{fill:#FFFFFF;}
</style>
<g>
	<g>
		<path class="st0" d="M13.6,18H6c-1.7,0-3-1.5-3-3.2V6.7c0-1.8,1.4-3.2,3-3.2h5.4c0.4,0,0.7,0.4,0.7,0.8c0,0.4-0.3,0.8-0.7,0.8H6
			C5.2,5,4.5,5.8,4.5,6.7v8.1c0,0.9,0.7,1.6,1.5,1.6h7.6c0.9,0,1.5-0.7,1.5-1.6V9.1c0-0.4,0.3-0.8,0.7-0.8c0.4,0,0.7,0.4,0.7,0.8
			v5.7C16.7,16.5,15.3,18,13.6,18z"/>
		<path class="st0" d="M8.5,9.6C8.5,9.6,8.5,9.7,8.5,9.6C8.5,9.6,8.5,9.6,8.5,9.6L8.5,9.6z M8.4,9.8C8.4,9.8,8.4,9.8,8.4,9.8
			C8.4,9.8,8.4,9.8,8.4,9.8z"/>
		<path class="st0" d="M18,4c0-0.6-0.2-1.1-0.6-1.4l0,0C17,2.2,16.5,2,15.9,2c-0.5,0-1,0.3-1.4,0.7l-6,7c0,0,0,0,0,0c0,0,0,0,0,0
			c0,0,0,0,0,0c0,0,0,0,0,0c0,0,0,0.1,0,0.1c0,0,0,0,0,0c0,0,0,0,0,0c0,0,0,0,0,0l-1,3c-0.1,0.3,0,0.6,0.2,0.8
			C7.7,13.9,7.9,14,8.1,14c0.1,0,0.2,0,0.3-0.1l2.8-1.3c0,0,0,0,0,0c0,0,0,0,0,0c0.1,0,0.1-0.1,0.2-0.1c0,0,0,0,0,0c0,0,0,0,0,0
			l6.1-7C17.8,5.1,18,4.6,18,4z M16.4,4.5l-5.5,6.4l-0.7-0.7l5.5-6.4c0.1-0.1,0.2-0.2,0.3-0.2c0.1,0,0.2,0,0.3,0.1l0,0
			c0.1,0.1,0.1,0.2,0.1,0.3C16.5,4.2,16.5,4.4,16.4,4.5z"/>
	</g>
</g>
</svg>
